X: 1
T: A Bottle Of Vodka, Twenty Marlboro Reds And £50 Cashback, Please
C: Fraser Shaw, Kevin O’Neill, John Somerville
Z: DaveF
S: https://thesession.org/tunes/9741#setting43237
R: jig
M: 6/8
L: 1/8
K: Dmaj
|:a2d dcd|Bcd cBA|BGB cAd-|dcA Bag|
f2d dcd|Bcd cBA|Bcd c3|1 cde Aag:|2 cde dcA||
|:BGB cAd-|ded cBA|BGB cAc|dcd fed|
BGB cAd-|ded cBA|BGB cAc|1 dcd fed:|2 dcd efg||
|:agf g2a-|a3-a2 c|cda agg|gff fee|
fBd g2f-|f3-f2 f|fee egg|1 gff efg:|2 gff fec||

